src/cards/spades_10.svg

<svg version="1.1" id="Layer_1" xmlns="http://www.w3.org/2000/svg" xmlns:xlink="http://www.w3.org/1999/xlink" x="0px" y="0px"
	 width="100%" viewBox="0 0 336 496" enable-background="new 0 0 336 496" xml:space="preserve">
<path fill="currentColor" opacity="1.000000" stroke="none" 
	d="
M1.000000,21.428463 
	C4.234793,20.580616 6.870335,18.839790 9.614106,17.251907 
	C13.790036,14.835202 16.274534,16.255703 16.319059,21.082293 
	C16.400381,29.897774 16.419174,38.715382 16.310608,47.530212 
	C16.273067,50.578293 16.825329,52.703712 20.422865,53.020824 
	C22.058916,53.165039 23.819130,53.887344 23.414070,56.182594 
	C23.062469,58.174927 21.373816,58.148121 19.893175,58.154888 
	C13.905796,58.182255 7.918102,58.140770 1.465262,58.062351 
	C1.000000,56.611111 1.000000,55.222221 1.413778,53.382690 
	C4.254979,52.521458 7.596030,53.481976 7.622411,49.326153 
	C7.670486,41.752449 7.636070,34.178219 7.636070,26.628733 
	C5.085290,25.860292 3.034874,26.305880 1.000000,27.000000 
	C1.000000,25.285643 1.000000,23.571283 1.000000,21.428463 
z"/>
<path fill="currentColor" opacity="1.000000" stroke="none" 
	d="
M337.000000,484.571533 
	C334.741486,485.060486 332.908081,486.236115 331.041229,487.300171 
	C325.624908,490.387207 323.681427,489.257111 323.657806,482.916107 
	C323.626343,474.468018 323.582214,466.019073 323.673279,457.571899 
	C323.705261,454.606293 323.321381,452.404510 319.664398,452.034637 
	C318.013916,451.867706 315.658051,451.348785 316.166626,448.790314 
	C316.651154,446.352936 318.937714,446.841522 320.670135,446.822479 
	C325.804047,446.765991 330.939209,446.825928 336.536926,446.920166 
	C337.000000,448.388885 337.000000,449.777802 336.621155,451.672607 
	C333.295502,452.217499 332.253662,453.794250 332.302826,456.628387 
	C332.403015,462.405182 332.560699,468.198578 332.233185,473.958923 
	C332.018829,477.729340 333.609039,479.022797 337.000000,479.000000 
	C337.000000,480.714355 337.000000,482.428711 337.000000,484.571533 
z"/>
<path fill="currentColor" opacity="1.000000" stroke="none" 
	d="
M136.743622,360.216034 
	C140.062973,344.677063 150.409790,339.743439 166.164032,346.113556 
	C166.091095,341.472504 163.982361,337.851868 161.604126,334.349182 
	C160.576889,332.836243 159.036469,331.356201 160.086319,329.434784 
	C161.133713,327.517822 163.300491,328.040619 165.069473,328.011536 
	C168.729172,327.951324 172.397339,327.893738 176.050400,328.072540 
	C180.581772,328.294342 181.465439,329.987915 178.887466,333.670868 
	C176.371552,337.265198 174.374039,341.010010 173.710648,345.343445 
	C174.512192,346.306366 175.289993,345.715851 175.998474,345.419861 
	C185.456665,341.468323 193.625900,342.979462 199.038696,349.705719 
	C204.674103,356.708618 204.681046,366.945923 198.884155,374.750641 
	C196.403717,378.090210 193.512070,381.080597 190.139236,383.591309 
	C183.102066,388.829712 175.479431,393.398682 170.044662,401.731995 
	C163.539993,391.783112 153.225906,387.119904 145.303696,379.643127 
	C139.891556,374.535248 136.752014,368.258026 136.743622,360.216034 
z"/>
<path fill="currentColor" opacity="1.000000" stroke="none" 
	d="
M202.181000,149.685547 
	C196.373276,161.696152 187.662872,164.491333 173.787979,158.857101 
	C174.045990,163.652802 176.072876,167.484863 178.693680,171.073608 
	C179.700851,172.452774 180.824921,173.852966 179.909760,175.585266 
	C179.088715,177.139420 177.349060,176.929214 175.882095,176.944824 
	C171.721634,176.989151 167.551071,177.122620 163.402069,176.897125 
	C159.565353,176.688629 158.685745,174.861542 160.906738,171.706802 
	C163.601379,167.879242 165.820297,163.944687 166.267578,158.699203 
	C161.458862,160.679092 157.078888,162.423401 152.057510,161.579376 
	C141.858612,159.865067 134.983582,150.092773 137.087280,139.950684 
	C138.499573,133.141815 142.076782,127.780205 147.428436,123.374741 
	C154.964294,117.171234 163.919495,112.618973 169.851105,103.352684 
	C176.916885,113.958794 188.465347,118.490334 196.369003,127.281784 
	C202.091339,133.646912 204.663437,140.788651 202.181000,149.685547 
z"/>
<path fill="currentColor" opacity="1.000000" stroke="none" 
	d="
M241.580109,457.314209 
	C240.351532,458.790558 239.335236,458.628906 238.546753,457.400330 
	C234.176865,450.591522 227.226486,446.729919 221.051727,441.977783 
	C214.907806,437.249420 209.437851,432.088989 207.483078,424.075867 
	C205.698700,416.761261 207.217789,410.478180 212.691071,405.410797 
	C218.208817,400.302338 224.746857,399.491791 231.767212,401.862579 
	C233.122589,402.320312 234.475403,402.785675 236.251068,403.391357 
	C235.659271,398.455719 233.677826,394.749756 231.207260,391.169403 
	C228.562744,387.336914 229.340652,385.870850 233.963959,385.735809 
	C237.790115,385.624054 241.623642,385.627930 245.450043,385.727966 
	C247.007202,385.768707 248.995392,385.071625 249.925720,386.973175 
	C250.906601,388.978119 249.343887,390.376770 248.322540,391.873077 
	C246.060226,395.187500 244.144150,398.646484 244.047928,403.234314 
	C247.018280,402.369598 249.745300,401.173248 252.577637,400.818878 
	C267.091370,399.003021 277.154724,412.883667 271.702301,426.997192 
	C268.650146,434.897583 262.110657,439.572205 255.703751,444.359680 
	C250.646652,448.138550 245.177551,451.450317 241.580109,457.314209 
z"/>
<path fill="currentColor" opacity="1.000000" stroke="none" 
	d="
M95.187294,385.705750 
	C98.830528,385.702515 102.000748,385.604858 105.161110,385.739197 
	C106.859650,385.811371 109.064468,384.947388 110.008560,387.183228 
	C110.762367,388.968384 109.387337,390.272858 108.458748,391.660004 
	C106.156311,395.099579 103.977501,398.611572 104.105995,403.455475 
	C108.843864,401.531158 113.367722,399.962677 118.289330,400.860596 
	C130.016541,403.000061 136.212555,415.338043 131.593216,427.252777 
	C129.657318,432.246094 126.195389,436.050995 122.193275,439.352753 
	C118.342819,442.529388 114.268410,445.443756 110.202614,448.347595 
	C106.270882,451.155640 103.245010,454.848145 99.930084,459.189148 
	C93.926270,449.683685 84.272896,445.213989 76.634636,438.384491 
	C69.948395,432.406189 65.623291,425.226624 67.082169,415.977081 
	C68.910408,404.385803 79.928917,398.029297 91.079285,401.677094 
	C92.630257,402.184479 94.161232,402.753052 96.149826,403.450562 
	C95.867348,398.752808 93.934006,395.199310 91.612785,391.771606 
	C88.463402,387.120972 88.998192,386.099579 95.187294,385.705750 
z"/>
<path fill="currentColor" opacity="1.000000" stroke="none" 
	d="
M116.744370,214.279755 
	C111.832970,214.770554 107.850807,213.185226 103.567406,210.814606 
	C104.020889,216.123993 106.313507,220.026443 108.858727,223.877884 
	C111.402168,227.726639 110.618118,229.176590 105.973335,229.287857 
	C101.817787,229.387421 97.652939,229.418091 93.500977,229.255249 
	C89.582634,229.101593 88.666748,227.415894 90.930222,224.228043 
	C93.660278,220.382980 95.687729,216.338974 96.494522,211.261902 
	C93.216972,212.132935 90.567993,213.925171 87.438911,214.263519 
	C72.868385,215.839096 62.904202,202.166870 68.336121,188.031586 
	C70.767021,181.705765 75.445160,177.306595 80.654793,173.320160 
	C87.359161,168.189957 94.802597,163.902985 99.951706,155.647690 
	C105.912323,165.428574 115.788048,169.789673 123.498917,176.725677 
	C128.611282,181.324280 132.234604,186.771713 133.134995,193.698349 
	C134.445862,203.782745 128.106110,211.871475 116.744370,214.279755 
z"/>
<path fill="currentColor" opacity="1.000000" stroke="none" 
	d="
M244.803619,211.389847 
	C242.901398,215.273254 245.822708,218.068497 247.167343,221.282532 
	C248.091965,223.492645 251.297562,225.163086 249.884354,227.817047 
	C248.362976,230.674164 245.080002,229.055298 242.579468,229.268234 
	C239.933945,229.493546 237.250916,229.388489 234.590073,229.282150 
	C233.014984,229.219223 231.074722,229.841309 230.116562,227.955246 
	C229.204254,226.159439 230.416595,224.815948 231.437286,223.475098 
	C234.100677,219.976379 235.675644,216.014465 236.589691,211.219742 
	C232.552200,212.374954 229.145020,214.428894 225.060287,214.366959 
	C213.438461,214.190735 204.829956,203.804703 207.072052,192.389847 
	C208.647263,184.370270 213.609985,178.750565 219.828354,173.932068 
	C226.766174,168.556046 234.604034,164.210724 239.982376,155.697830 
	C245.959335,165.475143 255.857895,169.839508 263.564117,176.809097 
	C268.259399,181.055542 271.829224,185.969971 272.892059,192.344223 
	C274.150818,199.893784 271.897217,206.334595 265.718079,210.853256 
	C259.148743,215.657272 252.086945,215.489685 244.803619,211.389847 
z"/>
<path fill="currentColor" opacity="1.000000" stroke="none" 
	d="
M103.560699,102.636353 
	C104.579529,106.865768 106.245094,110.466614 108.728821,113.669319 
	C109.671043,114.884293 110.635353,116.141060 110.006111,117.739021 
	C109.201302,119.782822 107.252007,119.259033 105.674622,119.285255 
	C101.511726,119.354454 97.346176,119.342834 93.182823,119.283379 
	C89.293610,119.227837 88.862793,117.083328 90.797852,114.418671 
	C93.586357,110.578773 95.569977,106.472374 96.539047,101.881287 
	C95.404694,100.706940 94.649361,101.864166 93.863243,102.206345 
	C85.691628,105.763206 77.983467,104.790535 72.508194,99.458557 
	C66.743378,93.844612 65.322548,85.431480 68.667892,77.297913 
	C71.181343,71.186966 75.856857,66.989578 80.939049,63.132137 
	C87.546059,58.117340 94.807220,53.851528 99.854424,45.784035 
	C106.942207,56.670647 119.016983,61.083981 126.949440,70.284882 
	C132.251389,76.434654 134.697693,83.415527 132.323196,91.546776 
	C129.247833,102.078072 117.890747,107.145760 107.403908,102.837685 
	C106.292862,102.381256 105.079849,99.952530 103.560699,102.636353 
z"/>
<path fill="currentColor" opacity="1.000000" stroke="none" 
	d="
M219.373322,330.666870 
	C213.670624,326.093048 209.223587,321.149841 207.503784,314.070618 
	C205.775497,306.956329 207.190811,300.782227 212.363159,295.728088 
	C217.750427,290.463989 224.263809,289.561859 231.374588,291.690948 
	C232.891479,292.145111 234.186035,293.533234 236.261658,292.930634 
	C235.618347,288.542694 233.914642,284.686859 231.227173,281.234650 
	C230.282501,280.021149 229.391403,278.733673 229.994919,277.138184 
	C230.696594,275.283295 232.472595,275.753754 233.878448,275.727142 
	C238.042801,275.648254 242.213028,275.593292 246.374496,275.728302 
	C250.557968,275.864044 251.388947,277.512085 248.886932,280.998871 
	C246.218307,284.717804 244.362732,288.703644 243.467972,293.243866 
	C245.287399,294.174774 246.306534,292.583435 247.580063,292.118408 
	C254.530594,289.580475 261.091675,290.018402 266.786987,294.986816 
	C272.573547,300.034821 274.296234,306.538330 272.598114,313.987793 
	C270.987854,321.052063 266.380035,325.968842 260.995544,330.374390 
	C253.952759,336.136749 245.515381,340.303619 240.189133,349.336273 
	C234.765015,340.980225 226.828369,336.388489 219.373322,330.666870 
z"/>
<path fill="currentColor" opacity="1.000000" stroke="none" 
	d="
M126.336746,294.529175 
	C135.304108,303.462524 135.475998,315.094269 127.042389,324.659058 
	C123.831482,328.300659 120.038269,331.284821 116.100975,334.084412 
	C110.280121,338.223328 104.328194,342.207367 100.197044,349.365326 
	C93.646675,339.178192 83.058678,334.607147 75.092888,326.950256 
	C70.910461,322.930054 68.172920,318.095612 67.070244,312.329895 
	C64.529167,299.043121 76.611710,287.743530 89.660912,291.298889 
	C91.721855,291.860474 93.719887,292.652893 96.212341,293.496002 
	C95.879356,288.731628 93.978470,285.007782 91.441986,281.538940 
	C90.445770,280.176514 89.246513,278.819000 90.043152,277.042755 
	C90.929993,275.065399 92.917458,275.773193 94.466110,275.726257 
	C98.123062,275.615448 101.787613,275.617981 105.444931,275.721588 
	C107.005875,275.765778 108.969307,275.102478 109.918091,276.991760 
	C110.809769,278.767334 109.592918,280.113068 108.584259,281.469666 
	C105.973206,284.981445 104.280914,288.897461 103.325554,293.997833 
	C111.259636,290.054901 118.803940,288.969055 126.336746,294.529175 
z"/>
<path fill="currentColor" opacity="1.000000" stroke="none" 
	d="
M244.962753,107.128494 
	C246.376114,109.608543 247.585312,111.786232 248.900162,113.898132 
	C251.216827,117.619141 250.600998,119.135811 246.421844,119.273209 
	C242.099625,119.415298 237.763992,119.423294 233.443268,119.256279 
	C229.568573,119.106499 228.694107,117.405640 230.974335,114.190659 
	C233.697739,110.350853 235.725983,106.313744 236.500595,101.252792 
	C233.063629,102.218658 230.243515,104.042534 226.910706,104.306885 
	C212.508301,105.449280 203.093506,92.101135 208.371658,77.987862 
	C210.690613,71.787231 215.300446,67.527069 220.325653,63.597237 
	C227.098267,58.300880 234.808914,54.087868 239.874924,45.710835 
	C246.146225,55.286259 255.803040,59.947262 263.567047,66.845734 
	C268.438354,71.173965 271.819977,76.302765 272.987701,82.850410 
	C275.382263,96.277412 262.641968,107.610344 249.644272,103.484650 
	C247.767807,102.889023 245.977936,102.020622 243.872681,101.166794 
	C243.060883,103.314140 244.581589,104.974770 244.962753,107.128494 
z"/>
<path fill="currentColor" opacity="1.000000" stroke="none" 
	d="
M280.104858,460.696655 
	C283.128815,449.203278 289.911041,444.643646 300.227936,446.553375 
	C306.007599,447.623260 309.350037,451.231232 310.994476,456.457886 
	C312.921997,462.584381 313.034027,468.944580 311.616302,475.184875 
	C309.423767,484.835938 303.002777,489.902679 294.436890,489.150482 
	C285.741974,488.386993 280.374390,482.471100 279.757629,472.570038 
	C279.520905,468.769623 279.880585,464.932007 280.104858,460.696655 
M290.218445,457.882629 
	C288.527039,464.668579 289.126556,471.446869 290.593811,478.143829 
	C291.204254,480.930023 292.482025,483.668671 296.106049,483.614960 
	C299.603729,483.563110 300.946960,481.152191 301.638550,478.190857 
	C303.215790,471.437195 303.150330,464.672882 301.592896,457.930206 
	C300.898499,454.923828 299.873352,451.851196 296.277435,451.499359 
	C292.503906,451.130096 291.251587,454.066559 290.218445,457.882629 
z"/>
<path fill="currentColor" opacity="1.000000" stroke="none" 
	d="
M31.740486,21.864708 
	C36.849281,16.294823 42.783829,14.769086 49.606789,16.786362 
	C56.004395,18.677881 58.602489,23.602070 59.702759,29.714130 
	C60.776745,35.680141 60.860115,41.612381 58.970596,47.410198 
	C56.439514,55.176579 50.865707,59.059402 42.857491,58.900280 
	C35.558727,58.755253 30.520998,54.744553 28.635565,46.668652 
	C26.672071,38.258377 26.707258,29.879494 31.740486,21.864708 
M42.782223,21.370684 
	C40.098751,21.917604 39.008579,23.983929 38.438248,26.291464 
	C36.614380,33.670700 36.802677,41.096252 38.662678,48.417431 
	C39.316788,50.992081 40.735043,53.518551 43.970154,53.567402 
	C47.476326,53.620358 48.782066,51.012680 49.537151,48.173489 
	C51.456436,40.956768 51.011040,33.705280 49.319412,26.534723 
	C48.636417,23.639620 46.948418,21.390352 42.782223,21.370684 
z"/>
<path fill="currentColor" opacity="1.000000" stroke="none" 
	d="
M293.539642,416.186737 
	C292.465118,406.874298 296.620728,403.198181 306.843140,403.955627 
	C308.104004,401.290863 302.624176,398.964294 306.083252,396.641144 
	C308.351990,395.117432 311.985016,395.091553 314.185242,396.785370 
	C317.264679,399.156097 312.165924,401.182373 313.201477,403.998627 
	C313.546173,404.433838 314.190033,404.220337 314.825684,404.068817 
	C319.429108,402.971588 323.185089,404.415680 325.515656,408.425385 
	C327.811981,412.376221 327.206512,416.447235 324.539215,420.126251 
	C322.462646,422.990509 319.650085,425.079712 316.796143,427.103729 
	C314.491547,428.738159 312.358490,430.568481 310.144226,433.547729 
	C305.096588,427.045685 296.591461,424.704285 293.539642,416.186737 
z"/>
<path fill="currentColor" opacity="1.000000" stroke="none" 
	d="
M44.056366,84.146164 
	C47.072052,88.435707 47.930431,92.715714 45.264969,96.999237 
	C42.493473,101.453163 38.127640,101.915390 33.305901,100.695053 
	C32.122852,103.525726 35.625034,105.106277 34.867126,107.948059 
	C31.916903,109.411087 28.275307,110.045044 25.684795,108.054512 
	C22.980734,105.976723 27.901457,103.696274 26.959534,101.096992 
	C24.770546,101.096992 22.595549,101.440346 20.569834,101.035934 
	C12.919563,99.508636 10.476318,89.823105 16.457491,83.665894 
	C20.471062,79.534195 25.228210,76.124825 29.995893,72.102699 
	C34.561760,75.983170 39.193047,79.919250 44.056366,84.146164 
z"/>
</svg>

<svg xmlns="http://www.w3.org/2000/svg" viewBox="0 0 336 496" xml:space="preserve"><path fill="currentColor" d="M1 21.428c3.235-.847 5.87-2.588 8.614-4.176 4.176-2.417 6.66-.996 6.705 3.83.081 8.816.1 17.633-.008 26.448-.038 3.048.514 5.174 4.112 5.49 1.636.145 3.396.867 2.991 3.163-.352 1.992-2.04 1.965-3.52 1.972-5.988.027-11.976-.014-18.429-.093-.465-1.45-.465-2.84-.051-4.68 2.841-.86 6.182.1 6.208-4.056.048-7.574.014-15.148.014-22.697C5.086 25.86 3.035 26.306 1 27v-5.572zM337 484.572c-2.259.488-4.092 1.664-5.959 2.728-5.416 3.087-7.36 1.957-7.383-4.384-.032-8.448-.076-16.897.015-25.344.032-2.966-.352-5.167-4.009-5.537-1.65-.167-4.006-.686-3.497-3.245.484-2.437 2.77-1.948 4.503-1.968 5.134-.056 10.27.004 15.867.098.463 1.469.463 2.858.084 4.753-3.325.544-4.367 2.121-4.318 4.955.1 5.777.258 11.57-.07 17.33-.214 3.771 1.376 5.065 4.767 5.042v5.572zM136.744 360.216c3.319-15.539 13.666-20.473 29.42-14.102-.073-4.641-2.182-8.262-4.56-11.765-1.027-1.513-2.568-2.993-1.518-4.914 1.048-1.917 3.214-1.394 4.983-1.423 3.66-.06 7.328-.118 10.981.06 4.532.222 5.415 1.916 2.837 5.599-2.515 3.594-4.513 7.339-5.176 11.672.801.963 1.579.373 2.287.077 9.459-3.952 17.628-2.44 23.04 4.286 5.636 7.003 5.643 17.24-.154 25.045-2.48 3.34-5.372 6.33-8.745 8.84-7.037 5.239-14.66 9.808-20.094 18.141-6.505-9.949-16.82-14.612-24.741-22.089-5.412-5.108-8.552-11.385-8.56-19.427zM202.181 149.686c-5.808 12.01-14.518 14.805-28.393 9.171.258 4.796 2.285 8.628 4.906 12.217 1.007 1.379 2.13 2.779 1.216 4.511-.821 1.554-2.56 1.344-4.028 1.36-4.16.044-8.33.178-12.48-.048-3.837-.208-4.716-2.035-2.495-5.19 2.694-3.828 4.913-7.762 5.36-13.008-4.808 1.98-9.188 3.724-14.21 2.88-10.198-1.714-17.073-11.486-14.97-21.628 1.413-6.81 4.99-12.17 10.341-16.576 7.536-6.204 16.491-10.756 22.423-20.022 7.066 10.606 18.614 15.137 26.518 23.929 5.722 6.365 8.294 13.507 5.812 22.404zM241.58 457.314c-1.228 1.477-2.245 1.315-3.033.086-4.37-6.808-11.32-10.67-17.495-15.422-6.144-4.729-11.614-9.889-13.569-17.902-1.784-7.315-.265-13.598 5.208-18.665 5.518-5.109 12.056-5.92 19.076-3.548 1.356.457 2.708.923 4.484 1.528-.592-4.935-2.573-8.641-5.044-12.222-2.644-3.832-1.866-5.298 2.757-5.433 3.826-.112 7.66-.108 11.486-.008 1.557.04 3.545-.656 4.476 1.245.98 2.005-.582 3.404-1.603 4.9-2.263 3.315-4.179 6.773-4.275 11.361 2.97-.864 5.697-2.06 8.53-2.415 14.513-1.816 24.577 12.065 19.124 26.178-3.052 7.9-9.591 12.575-15.998 17.363-5.057 3.779-10.526 7.09-14.124 12.954zM95.187 385.706c3.644-.003 6.814-.101 9.974.033 1.699.072 3.903-.792 4.848 1.444.753 1.785-.622 3.09-1.55 4.477-2.303 3.44-4.481 6.952-4.353 11.795 4.738-1.924 9.262-3.492 14.183-2.594 11.728 2.14 17.924 14.477 13.304 26.392-1.936 4.993-5.398 8.798-9.4 12.1-3.85 3.176-7.925 6.09-11.99 8.995-3.932 2.808-6.958 6.5-10.273 10.841-6.004-9.505-15.657-13.975-23.295-20.805-6.687-5.978-11.012-13.157-9.553-22.407 1.828-11.591 12.847-17.948 23.997-14.3 1.551.507 3.082 1.076 5.07 1.774-.282-4.698-2.215-8.252-4.536-11.68-3.15-4.65-2.615-5.671 3.574-6.065zM116.744 214.28c-4.911.49-8.893-1.095-13.177-3.465.454 5.309 2.747 9.211 5.292 13.063 2.543 3.849 1.76 5.299-2.886 5.41-4.155.1-8.32.13-12.472-.033-3.918-.153-4.834-1.84-2.57-5.027 2.73-3.845 4.757-7.889 5.564-12.966-3.278.87-5.927 2.663-9.056 3.002-14.57 1.575-24.535-12.097-19.103-26.232 2.431-6.326 7.11-10.725 12.319-14.712 6.704-5.13 14.148-9.417 19.297-17.672 5.96 9.78 15.836 14.142 23.547 21.078 5.112 4.598 8.736 10.046 9.636 16.972 1.31 10.085-5.029 18.173-16.39 20.582zM244.804 211.39c-1.903 3.883 1.019 6.678 2.363 9.893.925 2.21 4.13 3.88 2.717 6.534-1.521 2.857-4.804 1.238-7.305 1.451-2.645.226-5.328.12-7.989.014-1.575-.063-3.515.56-4.473-1.327-.913-1.796.3-3.14 1.32-4.48 2.664-3.499 4.239-7.46 5.153-12.255-4.038 1.155-7.445 3.209-11.53 3.147-11.622-.176-20.23-10.562-17.988-21.977 1.575-8.02 6.538-13.64 12.756-18.458 6.938-5.376 14.776-9.721 20.154-18.234 5.977 9.777 15.876 14.142 23.582 21.111 4.695 4.247 8.265 9.161 9.328 15.535 1.259 7.55-.995 13.99-7.174 18.51-6.57 4.803-13.631 4.636-20.914.536zM103.56 102.636c1.02 4.23 2.685 7.83 5.169 11.033.942 1.215 1.906 2.472 1.277 4.07-.805 2.044-2.754 1.52-4.331 1.546-4.163.07-8.329.058-12.492-.002-3.89-.055-4.32-2.2-2.385-4.864 2.788-3.84 4.772-7.947 5.741-12.538-1.134-1.174-1.89-.017-2.676.325-8.171 3.557-15.88 2.585-21.355-2.747-5.765-5.614-7.185-14.028-3.84-22.161 2.513-6.111 7.189-10.308 12.271-14.166 6.607-5.015 13.868-9.28 18.915-17.348 7.088 10.887 19.163 15.3 27.095 24.5 5.302 6.15 7.749 13.132 5.374 21.263-3.075 10.531-14.432 15.599-24.92 11.29-1.11-.456-2.323-2.884-3.842-.2zM219.373 330.667c-5.702-4.574-10.15-9.517-11.87-16.596-1.728-7.115-.312-13.289 4.86-18.343 5.387-5.264 11.9-6.166 19.012-4.037 1.516.454 2.811 1.842 4.887 1.24-.644-4.388-2.347-8.244-5.035-11.696-.944-1.214-1.836-2.501-1.232-4.097.702-1.855 2.478-1.384 3.883-1.41 4.165-.08 8.335-.135 12.496 0 4.184.136 5.015 1.784 2.513 5.27-2.669 3.72-4.524 7.706-5.419 12.246 1.82.93 2.839-.66 4.112-1.126 6.95-2.538 13.512-2.1 19.207 2.869 5.787 5.048 7.51 11.551 5.811 19-1.61 7.065-6.218 11.982-11.602 16.387-7.043 5.763-15.48 9.93-20.807 18.962-5.424-8.356-13.36-12.948-20.816-18.67zM126.337 294.53c8.967 8.933 9.139 20.564.705 30.13-3.21 3.64-7.004 6.625-10.941 9.424-5.82 4.14-11.773 8.123-15.904 15.281-6.55-10.187-17.138-14.758-25.104-22.415-4.183-4.02-6.92-8.854-8.023-14.62-2.54-13.287 9.542-24.586 22.59-21.031 2.062.561 4.06 1.354 6.552 2.197-.333-4.764-2.234-8.488-4.77-11.957-.996-1.362-2.195-2.72-1.399-4.496.887-1.978 2.874-1.27 4.423-1.317 3.657-.11 7.322-.108 10.979-.004 1.56.044 3.524-.62 4.473 1.27.892 1.775-.325 3.121-1.334 4.478-2.61 3.511-4.303 7.427-5.258 12.528 7.934-3.943 15.478-5.029 23.01.531zM244.963 107.128c1.413 2.48 2.622 4.658 3.937 6.77 2.317 3.721 1.701 5.238-2.478 5.375-4.322.142-8.658.15-12.979-.017-3.874-.15-4.749-1.85-2.469-5.065 2.724-3.84 4.752-7.877 5.527-12.938-3.437.966-6.257 2.79-9.59 3.054-14.403 1.142-23.817-12.206-18.54-26.32 2.32-6.2 6.93-10.46 11.955-14.39 6.772-5.296 14.483-9.51 19.549-17.886 6.271 9.575 15.928 14.236 23.692 21.135 4.871 4.328 8.253 9.457 9.42 16.004 2.395 13.427-10.345 24.76-23.343 20.635-1.876-.596-3.666-1.464-5.771-2.318-.812 2.147.709 3.808 1.09 5.961zM280.105 460.697c3.024-11.494 9.806-16.053 20.123-14.144 5.78 1.07 9.122 4.678 10.766 9.905 1.928 6.126 2.04 12.487.622 18.727-2.192 9.65-8.613 14.718-17.18 13.965-8.694-.763-14.062-6.679-14.678-16.58-.237-3.8.123-7.638.347-11.873m10.113-2.814c-1.691 6.786-1.091 13.564.376 20.26.61 2.787 1.888 5.526 5.512 5.472 3.498-.052 4.841-2.463 5.533-5.424 1.577-6.754 1.511-13.518-.046-20.26-.695-3.007-1.72-6.08-5.316-6.432-3.773-.369-5.025 2.568-6.059 6.384zM31.74 21.865c5.11-5.57 11.044-7.096 17.867-5.079 6.397 1.892 8.995 6.816 10.096 12.928 1.074 5.966 1.157 11.898-.732 17.696-2.531 7.767-8.105 11.65-16.114 11.49-7.298-.145-12.336-4.155-14.221-12.231-1.964-8.41-1.929-16.79 3.104-24.804m11.042-.494c-2.683.547-3.773 2.613-4.344 4.92-1.824 7.38-1.635 14.805.225 22.126.654 2.575 2.072 5.102 5.307 5.15 3.506.053 4.812-2.554 5.567-5.394 1.92-7.216 1.474-14.468-.218-21.638-.683-2.895-2.37-5.145-6.537-5.164zM293.54 416.187c-1.075-9.313 3.08-12.989 13.303-12.231 1.261-2.665-4.219-4.992-.76-7.315 2.269-1.524 5.902-1.55 8.102.144 3.08 2.371-2.02 4.397-.984 7.214.345.435.989.221 1.625.07 4.603-1.097 8.36.347 10.69 4.356 2.296 3.951 1.69 8.022-.977 11.701-2.076 2.865-4.889 4.954-7.743 6.978-2.304 1.634-4.438 3.464-6.652 6.444-5.047-6.502-13.553-8.844-16.604-17.361zM44.056 84.146c3.016 4.29 3.874 8.57 1.209 12.853-2.772 4.454-7.137 4.916-11.96 3.696-1.182 2.83 2.32 4.411 1.562 7.253-2.95 1.463-6.592 2.097-9.182.107-2.704-2.078 2.216-4.359 1.275-6.958-2.19 0-4.364.343-6.39-.061-7.65-1.527-10.094-11.213-4.113-17.37 4.014-4.132 8.771-7.541 13.539-11.563 4.566 3.88 9.197 7.816 14.06 12.043z"/></svg>
